X:1
T:BWV77/3
T:3. Aria (S) - BWV77
%%score [ 1 2 ] 3 4
L:1/8
Q:1/4=60
M:4/4
K:C
V:1 treble nm="Ob1"
V:2 treble nm="Ob2"
V:3 treble nm="S"
V:4 bass nm="BC"
V:1
 (ed)(ef) e4- | ed/e/ (f/e/)(f/e/) d4- | d(c/d/) (e/d/)(e/d/) c(B/c/) (d/c/)(d/c/) | BA(Bc) B4- | %4
 B/A/B/c/ d/c/d/c/ Bc/d/ (e/d/)(e/d/) | cd/e/ f2- f/e/d/e/ f/e/f/e/ | %6
 d/c/B/c/ d/c/d/c/ B/A/^G/A/ B/A/B/A/ | ^G/E/^F/G/ A/B/c/d/ eA/B/ (c/B/)(c/B/) | A2 z2 (ed)(ef) | %9
 e2 z2 z B/c/ d/c/d/B/ | c2 z2 d^cde | d2 z2 =cB/c/ d/c/d/c/ | B2 z2 z4 | z4 edef | %14
 e4- ed/e/ f/e/f/e/ | d4- dc/d/ e/d/e/d/ | cB/c/ d/c/d/c/ BABc | B z z2 z4 | z8 | z8 | g^fga g4- | %21
 g^f/g/ a/g/a/g/ f4- | fe/^f/ (g/f/)(g/f/) e(^d/e/) (f/e/)(f/e/) | (^d^cde) d4- | %24
 d/^c/^d/e/ ^f/e/f/e/ de/f/ g/f/g/f/ | e(^f/g/) (a/g/)(a/g/) fgag | ^fe^de ab c'2- | %27
 c'^f b^d eG/A/ B/A/B/A/ | G2 z2 z4 | z4 cBcd | c4- cB/c/ d/c/d/c/ | BA/B/ c/B/c/B/ AGAB | %32
 A z z2 z/ G/A/B/ c/B/c/B/ | c z z2 z ^g/a/ b/a/b/g/ | e4- e/d/^c/d/ e/d/e/c/ | ^a2 z2 z4 | %36
 ed^cd e4- | ed^cd e z z2 | z4 z2 z/ ^f/g/a/ | b/a/g/a/ b/a/b/a/ g/^f/e/f/ g/f/g/f/ | %40
 e/d/^c/d/ e/d/e/d/ c2 z2 | z4 d^cde | d4- d^c/d/ e/d/e/d/ | ^c z z2 z4 | gfga g4- | %45
 gf/g/ a/g/a/g/ f2 z2 | (dc)(de) d z z2 | ^g^fga g4- | g^g/a/ b/a/b/a/ g/^f/e/f/ g/a/f/g/ | %49
 a z z2 z2 z/ e/=f/=g/ | a/g/f/g/ a/g/a/g/ f/e/d/e/ f/e/f/e/ | d/c/B/c/ d/c/d/c/ B z z2 | z8 | %53
 dcde d2 z2 | z c/d/ e/d/e/d/ c z z2 | z8 | (ed)(ef) e4- | ed/e/ (f/e/)(f/e/) d4- | %58
 d(c/d/) (e/d/)(e/d/) c(B/c/) (d/c/)(d/c/) | BA(Bc) B4- | B/A/B/c/ d/c/d/c/ Bc/d/ (e/d/)(e/d/) | %61
 cd/e/ f2- f/e/d/e/ f/e/f/e/ | d/c/B/c/ d/c/d/c/ B/A/^G/A/ B/A/B/A/ | %63
 ^G/E/^F/G/ A/B/c/d/ eA/B/ (c/B/)(c/B/) | A2 z2 z4 |] %65
V:2
 (cB)(cd) c4- | cB/c/ (d/c/)(d/c/) B4- | B(A/B/) (c/B/)(c/B/) A(^G/A/) (B/A/)(B/A/) | %3
 ^G^F(GA) G4- | G/^F/^G/A/ B/A/B/A/ GA/B/ (c/B/)(c/B/) | AB/c/ d/c/d/c/ Bcdc | BA^GA de f2- | %7
 fBe^G AC/D/ (E/D/)(E/D/) | C2 z2 (cB)(cd) | c2 z2 z ^G/A/ B/A/B/G/ | A2 z2 FEFG | %11
 F2 z2 ED/E/ F/E/F/E/ | D2 z2 z4 | z4 GFGA | G4- GF/G/ A/G/A/G/ | F4- FE/F/ G/F/G/F/ | %16
 ED/E/ F/E/F/E/ DCDE | F z z2 z4 | z8 | z8 | BABc B4- | BA/B/ c/B/c/B/ A4- | %22
 AG/A/ (B/A/B/A/) G^F/G/ A/G/A/G/ | ^FEFG F4- | F/E/^F/G/ A/G/A/G/ FG/A/ B/A/B/A/ | %25
 GA/B/ c2- c/B/A/B/ c/B/c/B/ | A/G/^F/G/ A/G/A/G/ F/E/^D/E/ F/E/F/E/ | %27
 ^D/B/^c/^d/ e/^f/g/a/ be/f/ g/f/g/f/ | e2 z2 z4 | z4 AGAB | A4- AG/A/ B/A/B/A/ | %31
 G^F/G/ A/G/A/G/ FEFG | ^F z z2 z/ E/F/G/ A/G/A/G/ | A z z2 z B/A/ ^G/^F/E/D/ | %34
 A2 z2 z E/^F/ G/F/G/E/ | ^c2 z2 z4 | ^cB^AB c4- | c^fef ^c z z2 | z4 z2 z/ ^d/e/^f/ | %39
 g/^f/e/f/ g/f/g/f/ e/=d/^c/d/ e/d/e/d/ | ^c^fef g z z2 | z4 ^FEFG | ^F4- FE/F/ G/F/G/F/ | %43
 E z z2 z4 | edef e4- | ed/e/ f/e/f/e/ d2 z2 | BABc B z z2 | BABc B4- | %48
 Bd/e/ f/e/f/e/ d/c/B/c/ d/e/c/d/ | e z z2 z2 z/ c/d/e/ | f/e/d/e/ f/e/f/e/ d/c/B/c/ d/c/d/c/ | %51
 B/c/d/c/ B/A/^G/A/ f z z2 | z8 | BABc B2 z2 | z A/B/ c/B/c/B/ A z z2 | z8 | (cB)(cd) c4- | %57
 cB/c/ (d/c/)(d/c/) B4- | B(A/B/) (c/B/)(c/B/) A(^G/A/) (B/A/)(B/A/) | ^G^F(GA) G4- | %60
 G/^F/^G/A/ B/A/B/A/ GA/B/ (c/B/)(c/B/) | AB/c/ d/c/d/c/ Bcdc | BA^GA de f2- | %63
 fBe^G AC/D/ (E/D/)(E/D/) | C2 z2 z4 |] %65
V:3
 z8 | z8 | z8 | z8 | z8 | z8 | z8 | z4 z2 z e | c (B/c/) d/c/ d/B/ c2 z B | %9
w: |||||||Mein|Gott, ich * lie- * be * dich, ich|
 c B/c/ d/B/ c/A/ (B/A/^G/^F/) E e | c B/c/ d/B/ c/A/ =f2 z A | B A/B/ c/A/ B/G/ EF G A | %12
w: lie- be * dich * von * Her- * * * zen, mein|Gott, ich * lie- * be * dich, ich|lie- be * dich * von * Her- * zen, mein|
 B/G/A/B/ c/d/e/f/ g c f e/d/ | e>f d>c c2 z c | g f/e/ f/d/ e/c/ B2 z d | %15
w: gan- * * * * * * * * zes Le- ben *|hangt * dir * an; mein|Gott, ich * lie- * be * dich, ich|
 B A/B/ c/A/ B/G/ d/c/e/d/ c/d/c/d/ | e/d/f/e/ d/e/d/e/ f2- f/e/d/c/ | g f/e/d c/B/ c d e ^f | %18
w: lie- be * dich * von * Her- * * * * * * *||* zen, _ _ mein _ gan- zes Le- ben|
 g^f/e/f ^d e =d/c/ d B | c A B2- B/e/d/c/ B A/G/ |{^F} E2 z2 z4 | z8 | z8 | z8 | z8 | z8 | z8 | %27
w: hangt _ _ _ dir an, mein * gan- zes|Le- ben hangt _ _ _ _ _ dir *|an.|||||||
 z4 z2 z ^d | e ^f g e c B/A/ =d c | B3/2c/4B/4 A/B/ G ^F>E D d | %30
w: Laß|mich doch dein Ge- bot, mich * dein Ge-|bot _ _ _ _ er- ken- * nen, laß|
 d A ^F/G/ G/F/4G/4 AB/A/ G/A/G/A/ | B/A/c/B/ A/B/G/A/ c/B/ e/d/ c/B/ A/G/ | c3/2 d/ B>A A2 ^f2- | %33
w: mein doch dein * Ge- * * bot, _ _ _ _ _ _|_ _ _ _ _ _ _ _ _ _ mich * dein * Ge- *|bot er- ken- * nen, und|
 f e/^d/ e/^c/ d/B/ e B =d2- | d/^c/B/c/ d/B/c/A/ e4- | e/^c/d/e/ ^f/d/e/c/ d/B/^A/B/ g2- | %36
w: _ in * Lie- * be * so ent- bren-|||
 g/^f/e/f/ g/f/g/f/ e/d/^c/d/ e/d/e/d/ | ^c/B/^A/B/ c/B/c/B/ A/^F/^G/A/ B/c/d/e/ | %38
w: ||
 ^f e/d/e ^c d f/^d/ B2- | B8- | B4- B/^c/^A/B/ c/d/ e/c/ | d>e ^c>B B2 z2 | z4 z2 z B | %43
w: * nen, _ _ daß ich dich * e-||* * * * * * * wig *|lie- * ben * kann;|laß|
 ^c d e =f g3/2 a/ f>e | e a g/f/ e/d/ ^c Td e A | a ^c d e f e/f/d d/ e/ | f4- f e/d/ c/B/ c/A/ | %47
w: mich doch dein Ge- bot er- ken- *|nen, laß mich * doch * dein Ge- bot, mich|dein Ge- bot er- ken- nen, _ _ und in|Lie- * be * so * ent- *|
 d4- d/e/d/e/ f/e/f/e/ | d/c/B/c/ d/c/d/c/ B/A/^G/A/ B/c/A/B/ | c d/e/f e/d/ e/d/ e/c/ A2- | A8- | %51
w: bren- * * * * * * * *||* nen, _ _ daß * ich * dich * e-||
 A4- A/B/^G/A/ B/c/d/B/ | c/d/B/c/ d/e/f/d/ e/d/f/e/ d/c/B/A/ | %53
w: ||
 ^G/^F/E/F/ G/A/B/c/ d/c/e/d/ c/B/ A/G/ | A>B ^G>A A a/=g/ f/e/ d/^c/ | %55
w: * * * * * * * * * * * * * * wig *|lie- * ben _ kann, daß * ich * dich *|
 d/e/f/e/ d/=c/ B/A/ e>f B>A | A2 z2 z4 | z8 | z8 | z8 | z8 | z8 | z8 | z8 | z8 |] %65
w: e- * * * * * wig * lie- * ben _|kann.|||||||||
V:4
 A,,2 A,2- A,^G,/A,/ B,A,/G,/ | A,2 F,D, =G,^F,/G,/ A,G,/F,/ | G,2 E,C, =F,2 D,B,, | %3
 E,,2 E,2- E,D,/E,/ F,E,/D,/ | E,A,^G,A, E,D,C,E, | F,E,D,F, ^G,,2 z A,, | D,,2 z E,, F,,2 z D,, | %7
 E,,E,/D,/ C,B,, C,F, E,E,, | A,,A,- A,^G, A,2 z G, | A,E, =F,D, ^G,,B,, E,E,, | %10
 A,,A,^G,A, D,D,, D,2- | D,G,^F,G, C,CB,C | G,F,E,/D,/C,/D,/ E,/F,/G,/A,/ B,/G,/A,/B,/ | %13
 CF, G,G,, C,,2 C,2- | C,E, D,C, G,D, B,,D, | G,,>G, (F,/E,/D,/C,/) B,,D, G,,G, | %16
 C,E, A,,A, D,>E, D,/C,/B,,/A,,/ | G,,A,, B,,G,, E,B,, C,A,, | E,G,A,B, CB,/A,/ ^G,/^F,/G,/E,/ | %19
 A,/=G,/^F,/E,/ ^D,/^C,/D,/B,,/ G,E, B,B,, | E,2 E2- E^D/E/ ^FE/D/ | E2 CA, D^C/D/ ED/C/ | %22
 D2 B,G, C2 A,^F, | B,,2 B,2- B,A,/B,/ CB,/A,/ | B,E^DE B,A,G,B, | CB,A,C ^D,2 z E, | %26
 A,,2 z B,, C,2 z A,, | B,,B,/A,/ G,^F, G,C B,B,, | E,2 z E, A,G, ^F,/E,/F,/D,/ | %29
 G,/^F,/E,/D,/ C,/B,,/C,/A,,/ D,G, F,/E,/F,/E,/ | ^F,>D C/B,/A,/G,/ F,D, B,,D, | %31
 G,,G,^F,G, A,,2 z A, | D,^F, G,G,, D,DA,F, | ^D,^F, B,,A,, ^G,,B,, E,,G,, | %34
 A,,E, A,^G, ^A,B,^CA, | ^F,E, D,^C, B,,C,/D,/ E,/D,/E,/D,/ | ^C,D,E,D, C,D,C,B,, | %37
 ^A,,B,,A,,^G,, ^F,,2 z E, | D,G, ^C,^F, B,,C, ^D,B,, | G,,B,,^C,^D, E,2 z ^F, | %40
 G,/^F,/E,/F,/ G,/F,/G,/F,/ E,^C, ^A,,^F,, | B,,E, ^F,^F,, B,,2 B,2- | %42
 B,^A,/B,/ ^CB,/A,/ B,2 G,E, | =A,_B,/A,/ G,/F,/E,/D,/ ^C,A,, D,D,, | %44
 A,,2 A,2- A,A,/B,/ ^C/B,/C/B,/ | ^CA, F,A, D,E,F,D, | ^G,,F,/E,/ D,/C,/B,,/A,,/ G,,E,, A,,=G,, | %47
 F,,D,/C,/ B,,/A,,/^G,,/A,,/ E,,2 z2 | E,2 z2 E,,2 z E, | A,^G,A,B, CB,CA, | %50
 =F,A,/G,/ F,^C, D,2 z E, | F,/E,/D,/E,/ F,/E,/F,/E,/ D,B,, ^G,,E,, | A,,A,F,G, C,A,, F,D, | %53
 E,(F,/E,/) D,/C,/B,,/A,,/ ^G,,E,, A,,E, | F,/D,/E,/F,/ E,E,, A,,C^G,A, | %55
 F,E,F,D, C,/B,,/C,/D,/ E,E,, | A,,2 A,2- A,^G,/A,/ B,A,/G,/ | A,2 F,D, =G,^F,/G,/ A,G,/F,/ | %58
 G,2 E,C, =F,2 D,B,, | E,,2 E,2- E,D,/E,/ F,E,/D,/ | E,A,^G,A, E,D,C,E, | F,E,D,E, ^G,,2 z A,, | %62
 D,,2 z E,, F,,2 z D,, | E,,E,/D,/ C,B,, C,F, E,E,, | A,,2 z2 z4 |] %65

